public/icons/bubbletea.svg

<?xml version="1.0" encoding="UTF-8" standalone="no"?>
<svg
   id="bubbletea"
   width="15"
   height="15"
   viewBox="0 0 15 15"
   version="1.1"
   sodipodi:docname="bubbletea.svg"
   inkscape:version="1.3.1 (9b9bdc1480, 2023-11-25, custom)"
   xmlns:inkscape="http://www.inkscape.org/namespaces/inkscape"
   xmlns:sodipodi="http://sodipodi.sourceforge.net/DTD/sodipodi-0.dtd"
   xmlns="http://www.w3.org/2000/svg"
   xmlns:svg="http://www.w3.org/2000/svg">
  <circle
     cx="6.9507422"
     cy="11.723972"
     r="0.72018379"/>
  <circle
     cx="4.7524209"
     cy="12.008826"
     r="0.72018379"/>
  <circle
     cx="5.1949897"
     cy="13.868068"
     r="0.72018379"/>
  <circle
     cx="7.238709"
     cy="13.743273"
     r="0.72018379"/>
  <circle
     cx="8.6928205"
     cy="12.298935"
     r="0.72018379"/>
  <circle
     cx="10.147969"
     cy="11.132647"
     r="0.72018379"/>
  <circle
     cx="9.4815378"
     cy="13.894848"
     r="0.72018379"/>
  <rect
     style="fill:none;stroke:black;stroke-width:0.4;stroke-linejoin:round;"
     width="12.159907"
     height="1.8486266"
     x="1.4578528"
     y="7.0487447"
     ry="0.92431331"/>
  <path
     d="M 1.5214844,7.8183594 V 8.21875 H 13.611328 V 7.8183594 Z"/>
  <path
     d="M 4.421875,0.26855471 3.2109376,0.77636718 C 3.1075608,0.81971259 3.0599825,0.93953926 3.1054687,1.0419922 l 1.1230469,2.5546875 c -0.6963383,0.8044969 -1.408703,1.9343394 -1.3867187,3.4375 L 6.171875,7.0283197 3.5527344,1.0673828 4.3925781,0.71582029 7.1188354,7.0420533 c 0,0 3.4750426,-0.045295 5.1409306,-0.062561 C 12.14946,3.4914376 8.8710512,1.2422979 5.6367188,2.5888672 L 4.6816407,0.37402345 C 4.6375263,0.27180064 4.5203337,0.22775209 4.421875,0.26855471 Z"/>
  <path
     d="m 3.5293164,14.782607 0.8244231,-0.0062 c 0,0 -0.747216,-3.830184 -0.7253306,-4.147019 0.021885,-0.316834 0.1176954,-0.9252521 0.789649,-0.734358 0.6719536,0.190894 1.8711889,0.730435 3.2576815,0.645588 L 7.0393151,9.0813463 2.5978143,9.0789665 Z"/>
  <path
     d="m 8.0403617,9.0374064 0.6070225,1.4431296 c 0.8055012,-0.156102 1.4906608,-0.4266 2.0906998,-0.6153088 0.600039,-0.1887085 0.719663,0.4779508 0.720788,0.8438978 0.0011,0.365947 -0.709632,4.066921 -0.709632,4.066921 l 0.825663,0.0033 0.92415,-5.7322953 z"/>
</svg>

<?xml version="1.0" encoding="UTF-8"?>
<svg id="bubbletea" width="15" height="15" version="1.1" viewBox="0 0 15 15" xmlns="http://www.w3.org/2000/svg">
 <circle cx="6.951" cy="11.72" r=".7202"/>
 <circle cx="4.752" cy="12.01" r=".7202"/>
 <circle cx="5.195" cy="13.87" r=".7202"/>
 <circle cx="7.239" cy="13.74" r=".7202"/>
 <circle cx="8.693" cy="12.3" r=".7202"/>
 <circle cx="10.15" cy="11.13" r=".7202"/>
 <circle cx="9.482" cy="13.89" r=".7202"/>
 <rect x="1.458" y="7.049" width="12.16" height="1.849" ry=".9243" fill="none" stroke="#000" stroke-linejoin="round" stroke-width=".4"/>
 <path d="m1.521 7.818v0.401h12.09v-0.401z"/>
 <path d="m4.422 0.2686-1.211 0.5078c-0.103 0.0433-0.151 0.1631-0.106 0.2656l1.124 2.555c-0.697 0.804-1.409 1.934-1.387 3.437l3.33-6e-3 -2.619-5.961 0.84-0.3512 2.726 6.326s3.471-0.045 5.141-0.063c-0.11-3.488-3.389-5.737-6.623-4.39l-0.955-2.215c-0.044-0.1022-0.162-0.1462-0.26-0.1054z"/>
 <path d="m3.529 14.78h0.825s-0.747-3.83-0.726-4.15c0.022-0.32 0.118-0.926 0.79-0.735 0.672 0.195 1.871 0.735 3.258 0.645l-0.637-1.459-4.441-2e-3z"/>
 <path d="m8.04 9.037 0.607 1.443c0.806-0.16 1.493-0.43 2.093-0.615 0.6-0.188 0.72 0.475 0.72 0.845s-0.71 4.07-0.71 4.07h0.82l0.93-5.733z"/>
</svg>
